usr/share/icons/biglinux-icons-material/symbolic/apps/notes-app-symbolic.svg

<svg width="16" height="16" version="1.1" xmlns="http://www.w3.org/2000/svg">
 <g fill="#dedede">
  <path d="m4.994 0c-1.258 0.015-2.179-0.03-2.931 0.385-0.19 0.104-0.358 0.246-0.5 0.416l-0.063 0.088c-0.11 0.148-0.207 0.311-0.275 0.494-0.165 0.437-0.225 0.96-0.225 1.617v9c0 0.658 0.06 1.179 0.225 1.617 0.164 0.439 0.461 0.789 0.838 0.996 0.752 0.415 1.673 0.372 2.931 0.387h5.012c1.258-0.014 2.179 0.03 2.932-0.385 0.38938-0.22212 0.68659-0.57606 0.838-0.998 0.164-0.438 0.224-0.96 0.224-1.617v-9c0-0.658-0.06-1.179-0.225-1.617-0.067799-0.17655-0.1604-0.34255-0.275-0.493l-0.062-0.09c-0.13978-0.16758-0.30929-0.30793-0.5-0.414-0.753-0.414-1.674-0.371-2.932-0.386h-5.008zm-2.994 3h11v9c0 0.592-0.063 1.006-0.16 1.266-0.098 0.26-0.202 0.371-0.385 0.472-0.366 0.202-1.196 0.247-2.455 0.262h-5c-1.259-0.015-2.09-0.06-2.455-0.262-0.184-0.1-0.287-0.213-0.385-0.472-0.098-0.26-0.16-0.674-0.16-1.266z" color="#000000" font-family="sans-serif" font-weight="400" overflow="visible" solid-color="#000000" style="font-feature-settings:normal;font-variant-alternates:normal;font-variant-caps:normal;font-variant-ligatures:normal;font-variant-numeric:normal;font-variant-position:normal;isolation:auto;mix-blend-mode:normal;shape-padding:0;text-decoration-color:#000000;text-decoration-line:none;text-decoration-style:solid;text-indent:0;text-orientation:mixed;text-transform:none;white-space:normal"/>
  <path d="m5 4h7v1h-7zm0 2h7v1h-7zm0 2h7v1h-7zm0 2h4v1h-4zm-2-7h1v11h-1z"/>
 </g>
</svg>

<svg xmlns="http://www.w3.org/2000/svg" width="16" height="16"><g fill="#dedede"><path d="M4.994 0C3.736.015 2.815-.03 2.063.385c-.19.104-.358.246-.5.416L1.5.889c-.11.148-.207.311-.275.494C1.06 1.82 1 2.343 1 3v9c0 .658.06 1.179.225 1.617.164.439.461.789.838.996.752.415 1.673.372 2.931.387h5.012c1.258-.014 2.179.03 2.932-.385a1.88 1.88 0 0 0 .838-.998c.164-.438.224-.96.224-1.617V3c0-.658-.06-1.179-.225-1.617A1.992 1.992 0 0 0 13.5.89L13.438.8a1.774 1.774 0 0 0-.5-.414C12.185-.028 11.264.015 10.006 0H4.998zM2 3h11v9c0 .592-.063 1.006-.16 1.266-.098.26-.202.371-.385.472-.366.202-1.196.247-2.455.262H5c-1.259-.015-2.09-.06-2.455-.262-.184-.1-.287-.213-.385-.472C2.062 13.006 2 12.592 2 12z" color="#000" font-family="sans-serif" font-weight="400" overflow="visible" style="font-feature-settings:normal;font-variant-alternates:normal;font-variant-caps:normal;font-variant-ligatures:normal;font-variant-numeric:normal;font-variant-position:normal;isolation:auto;mix-blend-mode:normal;shape-padding:0;text-decoration-color:#000;text-decoration-line:none;text-decoration-style:solid;text-indent:0;text-orientation:mixed;text-transform:none;white-space:normal"/><path d="M5 4h7v1H5zm0 2h7v1H5zm0 2h7v1H5zm0 2h4v1H5zM3 3h1v11H3z"/></g></svg>
